!!!!SEGMENT: pl-kk--kk-i-274--003_anonim--missa-rorate-caeli-desuper-gloria-patri.krn
!!!id: 17xx:2079
!!!COM: Anonim
!!!COM-rism: pe30004985
!!!CDT:
!!!CNT:
!!!OTL: Missa Rorate caeli desuper – Gloria patri
!!!PDT:
!!!SMS-siglum: PL-Kk
!!!SMS-shelfmark: Kk.I.274
!!!NIFC-rismID: 1001147348
!!!URL-scan: http://repozytorium.nifc.pl/skany/pl-kk-nut--i-274
!!!ONB-nifc: UWAGA: części: 1. Rorate caeli, 2. Benedixisti, 3. Gloria patri, 4. Tollite portas (Quis ascendet należy do części), 5. Alleluia Ave Maria
!!!SMS-variant:
!!!SMS-altvar:
**kern	**text
*I"Baſſo	*
*I'B	*
*clefF4	*
*k[]	*
*M2/1	*
*met(C|)	*
*all\right	*
=1-	=1-
0r	.
=2-	=2-
1F	Glo-
1G	.
=3-	=3-
*2\right	*
2A\	.
1F	.
2E\	-ri-
=4-	=4-
0F	-a
=5-	=5-
2r	.
!LO:LB:g=original	!
2F\	Pa-
2F\	-tri
2F\	et
=6-	=6-
2.F\	Fi-
4F\	-li-
1F	-o
=7-	=7-
2r	.
2F\	et
2.F\	Spi-
4G\	-ri-
=8-	=8-
2A\	-tu-
2F\	-i
2F\	Sanc-
1BB/	.
=9-	=9-
.	.
2C/	.
2D/	.
2E\	.
=10-	=10-
2.F\	.
4E\	.
2D/	.
2C/	.
=11-	=11-
2BB/	.
2BB/	.
!LO:LB:g=original	!
2AA/	-to
2A\	Si-
=12-	=12-
1D	-cut
1F	e-
=13-	=13-
1F	-rat
2F\	in
2G\	prin-
=14-	=14-
2A\	.
2F\	-ci-
2.G\	.
4G\	-pi-
=15-	=15-
1D	-o
2r	.
2F\	et
=16-	=16-
2F\	nunc
2F\	et
1F	Sem-
=17-	=17-
1F	-per
=18-	=18-
*M3/1	*
0D	Et
1D	in
!LO:LB:g=original	!
=19-	=19-
1.C	Sae-
2C/	-cu-
1C	-la
=20-	=20-
0F	Sae-
1F	-cu-
=21-	=21-
0F	-lo-
1F	-ru(m)
=22-	=22-
1.C	a-
2D/	.
1E	.
=23-	=23-
1.F	.
2E\	.
2C/	.
2D\	.
=24-	=24-
1.E	.
2D/	.
2C/	.
2BB/	.
=25-	=25-
1AA	-men
0D	a-
=26-	=26-
1GG	.
0AA	.
!LO:LB:g=original	!
=27-	=27-
0.D	.
=28-	=28-
0.Dl;;	-men.
==	==
*-	*-
!!!RDF**kern: l = terminal long
!!!ENC: Andrzej Kubiczek
!!!END: 2021-03-28
!!!ENC: Kamil Watkowski
!!!END: 2021-03-10
